X:1
T:Title
%%score [ 1 2 3 4 ]
L:1/8
Q:1/4=200
M:2/2
K:F
V:1 treble nm="S."
V:2 treble nm="A."
V:3 treble-8 transpose=12 nm="T."
V:4 bass nm="B."
V:1
 z8 | c4 c4 | B4 A4 | c4 c4 | c4 B4- | B2 c2 d4 | c4 f4 | e2 e2 d4 | d2 c2 c4- | c2 =B2 B4 | c8 | %11
w: |Bel au-|bé- pin|ver- dis-|sant, fleu-|* ris- sant|le long|de ce beau|ri- va- *||ge,|
 d4 c4 | B4 A4 | c4 c4 | c4 B4- | B2 c2 d4 | c4 f2 f2 | e4 d4- | d2 c2 c4- | c2 =B2 B4 | c8 | z8 | %22
w: Tu es|ves- tu|jus- qu'au|bas, Des|* longs bras,|D'u- ne lam-|brun- che|* sau- va-||ge,||
 z4 c2 c2 | d2 c2 d2 e2 | f4 e2 e2 | f4 e4 | d2 c2 g4 | f2 f2 e2 dc | d8 | c8 | z8 | z4 c2 c2 | %32
w: Deux camps|dril- lants de for-|mis, Se sont|mis, En|gar- ni- son|sous ta sou- * *||che,||Et dans|
 d2 c2 d2 e2 | f4 e2 e2 | f4 e2 e2 | d2 c2 g4 | f4 e2 dc | d8 | c8 | z8 | z8 | c2 c2 c2 c2 | %42
w: ton tronc mi man-|gé, Ar- ran-|gé, Les a-|vet- tes ont|leur cou- * *||che,|||Le gen- til ros-|
 B2 B2 A4- | A4 c2 B2 | A4 c2 c2 | c2 c2 d2 e2 | f4 e4- | e4 c2 c2 | c2 c2 B2 B2 | A8 | c2 B2 A4 | %51
w: si- gno- let,|* Nou- ve-|let, A- vec-|ques sa bien ay-|mé- e,|* Pour ses|a- mours al- lé-|ger,|Vient lo- ger,|
 c2 c2 c2 c2 | d2 d2 f4 | e4 d4- | d2 d2 c4 | c2 c2 c2 c2 | d2 d2 f4- | f4 e4 | f8 | z8 | z8 | z8 | %62
w: Tous les ans en|ta ra- mé-|e, Vient|* lo- ger,|Tous les ans en|ta ra- mé-||e,||||
 z8 | z8 | z8 | z8 | z8 | z8 | z8 | z8 | z8 | z4 z2 c2 | c2 c2 A4 | z2 c2 c4 | B4 A4 | c6 c2 | %76
w: |||||||||Or|vy gen- til,|or vy|gen- til|au- bé-|
 c4 B4- | B2 c2 d4 | c4 f4 | e2 e2 d4- | d2 c2 c4- | c2 =B2 B4 | c4 c4 | B2 B2 B2 BB | A2 AA A4 | %85
w: pin, Vy|* sans fin,|Vy sans|que ja- mais|* ton- ner-||re, Ou|la con- gnée ou les|vens, ou les tems,|
 z2 c2 c4 | B4 A4 | c4 c4 | c4 B4- | B2 c2 d4 | c4 f4 | e2 e2 d4- | d2 c2 c4- | c2 =B2 B4 | c8 | %95
w: Ou la|con- gnée,|ou les|vens, ou|* les tems,|Te puis-|sent ru- er|* par ter-||re,|
 c4 f4 | e2 e2 d4- | d2 c2 c4- | c2 =B2 B4 | c8 | c4 f4 | e2 e2 d4 | d4 c4- | c2 =B2 B4 | c8 |] %105
w: te puis-|sent ru- er|* par ter-||re,|te puis-|sent ru- er|par ter-||re.|
V:2
 c4 c4 | A4 A4 | F4 F4 | G4 G2 G2 | A4 D2 D2 | G4 F2 G2 | A4 A4 | c4 A2 B2 | G4 A4 | G8 | G8 | %11
w: Bel au-|bé- pin|ver- dis-|sant, fleu- ris-|sant, ver- dis-|sant, fleu- ris-|sant le|long de ce|beau ri-|va-|ge,|
 B4 A4 | F4 F4 | G4 G4 | A4 D2 D2 | G4 F2 G2 | A8 | c4 A2 B2 | G4 A2 A2 | G8 | G4 E2 E2 | %21
w: Tu es|ves- tu|jus- qu'au|bas, jus- qu'au|bas, Des longs|bras,|D'u- ne lam-|brun- che sau-|va-|ge. Deux camps|
 F2 E2 F2 G2 | A8 | F2 F2 F2 G2 | A2 B2 c4 | A2 B2 c2 G2 | G2 A2 B4 | A2 F2 c4- | c2 =B2 B4 | %29
w: dril- lants de for-|mis,|deux camps dril- lants|de for- mis|Se sont mis en|gar- ni- son|sous ta sou-||
 c4 A2 A2 | B2 A2 G2 G2 | A8 | F2 F2 F2 G2 | A2 B2 c4 | A2 B2 c4 | B2 A2 G2 G2 | A2 B2 c4- | %37
w: che. Et dans|ton tronc mi man-|gé,|Et dans ton tronc|mi- man- gé,|Ar- ran- gé,|Les a- vet- tes|ont leur cou-|
 c2 =B2 B4 | c4 c2 c2 | c2 c2 B2 B2 | A4 c2 B2 | A4 G2 G2 | G2 G2 F2 F2 | E4 A2 G2 | E4 A2 A2 | %45
w: |che. Le gen-|til ros- si- gno-|let, Nou- ve-|let, Le gen-|til ros- si- gno-|let Nou- ve-|let, A- vec-|
 G2 A2 B2 G2 | c4 c4- | c4 A4 | G4 G2 G2 | F2 F2 E4 | A2 G2 E2 FG | A4 G2 G2 | G2 G2 A2 B2 | %53
w: ques sa bien ay-|mé- e,|* Pour|ses a- mours|al- lé- ger,|Vient lo- ger, * *|* Tous les|ans en ta ra-|
 c3 c B4 | B4 A4 | G2 G2 G2 G2 | B4 c4 | c8 | A4 B2 B2 | A2 G2 A2 B2 | c4 A2 B2 | c6 B2 | A4 G4 | %63
w: mé- e, Vient|lo- ger,|Tous les ans en|ta ra-|mé-|e. Dans la-|quelle il fait son|ny, bien gar-|ny De|laine et|
 B4 B4- | B2 A2 G4 | F4 B2 B2 | A2 G2 A2 B2 | c4 A2 B2 | c6 B2 | A4 G4 | B4 B4- | B2 A2 G4 | %72
w: de fi-|* * ne|soye, Où ses|pe- tits s'é- clo-|ront, Qui se-|ront, De|mes mains|la dou-|* * ce|
 F2 c2 c4 | A4 A4 | F4 F4 | G4 G2 G2 | A4 z4 | z4 F2 G2 | A4 A4 | c4 A2 B2 | G4 A4 | G8 | E8 | z8 | %84
w: proye. Or vy|gen- til|au- bé-|pin, Vy sans|fin,|Vy sans|fin, Vy|sans que ja-|mais ton-|ner|re,||
 c4 c4 | A4 A4 | F4 F4 | G4 G2 G2 | A4 D2 D2 | G4 F2 G2 | A4 A4 | c4 A2 B2 | G4 A4 | G8 | %94
w: Ou la|con- gnée|ou les|vens, ou les|tems, ou les|vens, ou les|tems, Te|puis- sent ru-|er par|ter-|
 E2 E2 A2 A2 | G2 GG F4 | z4 z2 F2 | B2 B2 A2 AA | G2 GG G2 GG | E2 E2 A4 | G2 c2 A2 B2 | c4 A4 | %102
w: re, Ou la con-|gnée ou les vens,|Ou|la con- gnée ou les|vens ou les tems ou les|vens, Te puis-|sent ru- er par|ter- re,|
 z2 B2 G2 A2 | G8 | G8 |] %105
w: ru- er par|ter-|re.|
V:3
 z8 | f4 f4 | d4 d4 | e4 e4 | f4 z4 | d6 e2 | f4 d4 | g4 f2 f2 | e4 f4 | d8 | c8 | f4 f4 | d4 d4 | %13
w: |Bel au-|bé- pin|ver- dis-|sant,|fleu- ris-|sant le|long de ce|beau ri-|va-|ge,|Tu es|ves- tu|
 e4 e4 | f4 z4 | d6 e2 | f4 d4 | g2 g2 f4 | e4 f4 | d8 | c4 c2 c2 | d2 c2 d2 e2 | f4 F2 F2 | %23
w: jus- qu'au|bas,|Des longs|bras, D'u-|ne lam- brun-|che sau-|va-|ge, Deux camps|dril- lants de for-|mis, deux camps|
 B2 A2 B2 G2 | d4 A2 A2 | d4 c4 | B2 A2 G4 | d4 c4 | G8 | c4 F2 F2 | G2 A2 B2 c2 | F4 F2 F2 | %32
w: dril- lants de for-|mis, Se sont|mis en|gar- ni- son|sous ta|sou-|che, Et dans|ton tronc mi man-|gé, et dans|
 B2 A2 B2 G2 | d4 A2 A2 | d4 z4 | z4 e2 e2 | d2 d2 c2 c2 | G8 | c4 e2 e2 | e2 c2 d2 e2 | f4 c2 d2 | %41
w: ton tronc mi man-|gé, Ar- ran-|gé,|Les a-|vet- tes ont leur|cou-|che. Le gen-|til ros- si- gno-|let, Nou- ve-|
 f4 e2 e2 | d2 d2 d2 d2 | c4 f2 d2 | c4 f4 | e4 f2 e2 | a2 a2 g2 g2 | z8 | e2 e2 d2 d2 | d2 d2 c4 | %50
w: let, Le gen-|til ros- si- gno-|let, Nou- ve-|let, A-|vec- ques sa|bien ay- mé- e,||Pour ses a- mours|al- lé- ger,|
 f2 d2 c2 c2 | f4 e4 | d2 d2 d2 d2 | e2 e2 g3 g | f2 f2 e4 | e2 e2 e2 e2 | f4 a4 | g8 | f4 d2 d2 | %59
w: Vient lo- ger, Tous|les ans,|tous les ans en|ta ra- mé- e,|Vient lo- ger,|Tous les ans en|ta ra-|mé-|e. Dans la-|
 c2 c2 c2 d2 | e4 f2 g2 | a6 g2 | f4 g4 | d4 g4- | g2 f2 e4 | f4 d2 d2 | c2 c2 c2 d2 | e4 f2 g2 | %68
w: quelle il fait son|ny, bien gar-|ny, De|laine et|de fi-|* * ne|soye, Où ses|pe- tits s'é- clo-|ront, Qui se-|
 a6 g2 | f4 g4 | d4 g4- | g2 f2 e4 | f8 | f4 f4 | d4 d4 | e2 e2 e2 e2 | f4 z4 | d6 e2 | f4 d4 | %79
w: ront, De|mes mains|la dou-|* * ce|proye.|Or vy,|or vy|gen- til au- bé-|pin,|Vy sans|fin, vy|
 g4 f2 f2 | e4 f4 | d8 | c8 | g4 g2 g2 | e4 e4 | z2 f2 f4 | d4 d4 | e4 e4 | f4 z4 | d6 e2 | f4 d4 | %91
w: sans que ja-|mais ton-|ner-|re,|Ou la con-|gné- e|Ou la|con- gnée|ou les|vens,|ou les|tems, Te|
 g4 f2 f2 | e4 f4 | d8 | c8 | e4 a4 | g2 e2 f2 d2 | g4 e2 f2 | e2 e2 d2 dd | c2 cc A2 ff | %100
w: puis- sent ru-|er par|ter-|re,|Te puis-|sent ru- er par|ter- re, Ou|la con- gnée ou les|vens, ou les tems ou les|
 e2 ee d2 d2 | g4 f4- | f2 f2 e2 f2 | d8 | c8 |] %105
w: vens ou les tems te|puis- sent|* ru- er par|ter-|re.|
V:4
 z8 | F,4 F,4 | B,4 D4 | C4 C4 | F,4 G,4- | G,2 A,2 B,4 | z8 | C2 C2 D2 B,2 | C4 F,4 | G,8 | %10
w: |Bel au-|bé- pin|ver- dis-|sant, fleu-|* ris- sant||le long de ce|beau ri-|va-|
 C,4 C2 C2 | B,4 F,2 G,A, | B,A,B,C D4 | C4 C4 | F,4 G,4- | G,2 A,2 B,4 | z8 | C4 D2 B,2 | %18
w: ge, Tu es|ves- tu * *||jus- qu'au|bas, Des|* longs bras||D'u- ne lam-|
 C4 F,2 F,2 | G,8 | C,8 | z8 | z8 | z8 | z8 | z8 | z8 | z8 | z8 | z8 | z8 | z8 | z8 | z8 | z8 | %35
w: brun- che sau-|va-|ge.|||||||||||||||
 z8 | z8 | z8 | z4 A,2 A,2 | A,2 A,2 G,2 G,2 | F,4 A,2 G,2 | F,4 C,2 C,2 | G,2 G,2 D,2 D,2 | %43
w: |||Le gen-|til ros- si- gno-|let, Nou- ve-|let, Le gen-|til ros- si- gno-|
 A,4 F,2 G,2 | A,4 F,4 | C4 B,2 C2 | F,2 F,2 C2 C2 | z8 | C,2 C,2 G,2 G,2 | D,2 D,2 A,4 | %50
w: let, Nou- ve-|let, A-|vec- ques sa|bien ay- mé- e,||Pour ses a- mours|al- lé- ger,|
 F,2 G,2 A,4 | F,4 C,4 | G,2 G,2 D2 D2 | C4 G,4 | D2 D2 A,4 | C2 C2 C2 C2 | B,4 F,4 | C8 | %58
w: Vient lo- ger,|Tous les|ans en ta ra-|mé- e,|Vient lo- ger,|Tous les ans en|ta ra-|mé-|
 F,4 B,,2 B,,2 | F,2 E,2 F,2 D,2 | C,4 D,2 G,2 | F,6 G,2 | D,4 _E,4 | B,,4 _E,4- | E,2 F,2 C,4 | %65
w: e, Dans la-|quelle il fait son|ny, bien gar-|ny, De|laine et|de fi-|* * ne|
 F,4 B,,2 B,,2 | F,2 E,2 F,2 D,2 | C,4 D,2 G,2 | F,6 G,2 | D,4 _E,4 | B,,4 _E,4- | E,2 F,2 C,4 | %72
w: soye, Où ses|pe- tits s'é- clo-|ront, Qui se-|ront, De|mes mains|la dou-|* * ce|
 F,4 z2 F,2 | F,4 z2 F,2 | B,4 D4 | C4 C2 C2 | F,4 G,4- | G,2 A,2 B,4 | z8 | C2 C2 D2 B,2 | %80
w: proye. Or|vy, or|vy gen-|til au- bé-|pin, Vy|* sans fin,||Vy sans que ja-|
 C4 F,4 | G,8 | C,8 | z8 | A,4 A,4 | F,6 G,A, | B,4 D4 | C4 C4 | F,4 G,4- | G,2 A,2 B,4 | z8 | %91
w: mais ton-|ner-|re,||Ou la|con- * *|* gnée,|Ou les|vens, ou|* les tems,||
 C2 C2 D2 B,2 | C4 F,4 | G,8 | A,4 F,4 | C4 F,2 F,2 | C4 B,2 B,2 | G,2 G,2 A,G,A,B, | C4 G,2 G,2 | %99
w: Te puis- sent ru-|er par|ter-|re, Te|puis- sent, te|puis- sent ru-|er par ter- * * *|* re, Ou|
 A,2 A,2 F,2 F,F, | C,2 C,C, D,2 D,D, | C,2 C2 D4 | B,2 B,2 C2 F,2 | G,8 | C,8 |] %105
w: la con- gnée ou les|vens ou les tems ou les|vens, Te puis-|sent ru- er par|ter-|re.|

